svg/logo/appstore_line.svg

<?xml version="1.0" encoding="UTF-8"?>
<svg width="24px" height="24px" viewBox="0 0 24 24" version="1.1" xmlns="http://www.w3.org/2000/svg" xmlns:xlink="http://www.w3.org/1999/xlink">
    <title>appstore_line</title>
    <g id="页面-1" stroke="none" stroke-width="1" fill="none" fill-rule="evenodd">
        <g id="Brand" transform="translate(-192.000000, -0.000000)" fill-rule="nonzero">
            <g id="appstore_line" transform="translate(192.000000, 0.000000)">
                 <path d="M24,0 L24,24 L0,24 L0,0 L24,0 Z M12.5934901,23.257841 L12.5819402,23.2595131 L12.5108777,23.2950439 L12.4918791,23.2987469 L12.4918791,23.2987469 L12.4767152,23.2950439 L12.4056548,23.2595131 C12.3958229,23.2563662 12.3870493,23.2590235 12.3821421,23.2649074 L12.3780323,23.275831 L12.360941,23.7031097 L12.3658947,23.7234994 L12.3769048,23.7357139 L12.4804777,23.8096931 L12.4953491,23.8136134 L12.4953491,23.8136134 L12.5071152,23.8096931 L12.6106902,23.7357139 L12.6232938,23.7196733 L12.6232938,23.7196733 L12.6266527,23.7031097 L12.609561,23.275831 C12.6075724,23.2657013 12.6010112,23.2592993 12.5934901,23.257841 L12.5934901,23.257841 Z M12.8583906,23.1452862 L12.8445485,23.1473072 L12.6598443,23.2396597 L12.6498822,23.2499052 L12.6498822,23.2499052 L12.6471943,23.2611114 L12.6650943,23.6906389 L12.6699349,23.7034178 L12.6699349,23.7034178 L12.678386,23.7104931 L12.8793402,23.8032389 C12.8914285,23.8068999 12.9022333,23.8029875 12.9078286,23.7952264 L12.9118235,23.7811639 L12.8776777,23.1665331 C12.8752882,23.1545897 12.8674102,23.1470016 12.8583906,23.1452862 L12.8583906,23.1452862 Z M12.1430473,23.1473072 C12.1332178,23.1423925 12.1221763,23.1452606 12.1156365,23.1525954 L12.1099173,23.1665331 L12.0757714,23.7811639 C12.0751323,23.7926639 12.0828099,23.8018602 12.0926481,23.8045676 L12.108256,23.8032389 L12.3092106,23.7104931 L12.3186497,23.7024347 L12.3186497,23.7024347 L12.3225043,23.6906389 L12.340401,23.2611114 L12.337245,23.2485176 L12.337245,23.2485176 L12.3277531,23.2396597 L12.1430473,23.1473072 Z" id="MingCute" fill-rule="nonzero"></path>
                <path d="M12,2 C17.5228,2 22,6.47715 22,12 C22,17.5228 17.5228,22 12,22 C6.47715,22 2,17.5228 2,12 C2,6.47715 6.47715,2 12,2 Z M12,4 C7.58172,4 4,7.58172 4,12 C4,16.4183 7.58172,20 12,20 C16.4183,20 20,16.4183 20,12 C20,7.58172 16.4183,4 12,4 Z M12.5001,13.0002 C13.0523,13.0002 13.5001,13.4479 13.5001,14.0002 C13.5001,14.51305 13.1139867,14.9357092 12.6167055,14.9934725 L12.5001,15.0002 L9.10615,15.0002 L8.27256,16.4887 C8.00271,16.9706 7.39332,17.1425 6.91145,16.8726 C6.46399929,16.6220714 6.28383587,16.0787245 6.47643816,15.6165456 L6.52755,15.5115 L6.8139,15.0002 L6.30005,15.0002 C5.74776,15.0002 5.30005,14.5525 5.30005,14.0002 C5.30005,13.48735 5.68608566,13.0646908 6.1834279,13.0069275 L6.30005,13.0002 L12.5001,13.0002 Z M14.3926,10.0116 L16.0662,13.0002 L17.7,13.0002 C18.2523,13.0002 18.7,13.4479 18.7,14.0002 C18.7,14.5525 18.2523,15.0002 17.7,15.0002 L17.1862,15.0002 L17.4726,15.5116 C17.7424,15.9934 17.5705,16.6028 17.0887,16.8727 C16.6068,17.1425 15.9974,16.9707 15.7275,16.4888 L12.6475,10.9888 C12.3777,10.5069 12.5496,9.89752 13.0314,9.62767 C13.5133,9.35783 14.1227,9.5297 14.3926,10.0116 Z M11.8726,5.51163 L12,5.73925 L12.1275,5.51158 C12.3974,5.0297 13.0068,4.85782 13.4886,5.12767 C13.9705,5.39752 14.1424,6.00691 13.8726,6.48878 L10.7926,11.9888 C10.5227,12.4707 9.91331,12.6425 9.43144,12.3727 C8.94957,12.1028 8.77769,11.4934 9.04754,11.0116 L10.8539,7.7859 L10.1276,6.48883 C9.85771,6.00696 10.0296,5.39757 10.5115,5.12773 C10.9933,4.85788 11.6027,5.02976 11.8726,5.51163 Z" id="形状" fill="#09244B"></path>
            </g>
        </g>
    </g>
</svg>

<svg xmlns="http://www.w3.org/2000/svg" width="24" height="24"><g fill="none" fill-rule="nonzero"><path d="M24 0v24H0V0h24ZM12.593 23.258l-.011.002-.071.035-.02.004-.014-.004-.071-.035c-.01-.004-.019-.001-.024.005l-.004.01-.017.428.005.02.01.013.104.074.015.004.012-.004.104-.074.012-.016.004-.017-.017-.427c-.002-.01-.009-.017-.017-.018Zm.265-.113-.013.002-.185.093-.01.01-.003.011.018.43.005.012.008.007.201.093c.012.004.023 0 .029-.008l.004-.014-.034-.614c-.003-.012-.01-.02-.02-.022Zm-.715.002a.023.023 0 0 0-.027.006l-.006.014-.034.614c0 .012.007.02.017.024l.015-.002.201-.093.01-.008.004-.011.017-.43-.003-.012-.01-.01-.184-.092Z"/><path fill="#09244B" d="M12 2c5.523 0 10 4.477 10 10s-4.477 10-10 10S2 17.523 2 12 6.477 2 12 2Zm0 2a8 8 0 1 0 0 16 8 8 0 0 0 0-16Zm.5 9a1 1 0 0 1 .117 1.993L12.5 15H9.106l-.833 1.489a1 1 0 0 1-1.797-.872l.052-.106.286-.51H6.3a1 1 0 0 1-.117-1.994L6.3 13h6.2Zm1.893-2.988L16.066 13H17.7a1 1 0 1 1 0 2h-.514l.287.512a1 1 0 0 1-1.745.977l-3.08-5.5a1 1 0 0 1 1.745-.977Zm-2.52-4.5.127.227.127-.227a1 1 0 0 1 1.746.977l-3.08 5.5a1 1 0 0 1-1.745-.977l1.806-3.226-.726-1.297a1 1 0 1 1 1.745-.977Z"/></g></svg>
